!!!OTL: Der Gluecksjaeger Es blost ein Jaeger wohl in sein Horn,
!!!ARE: Europa, Mitteleuropa, Deutschland (BRD), Baden, Horben
!!!YOR: 6, S. 194
!!    1848 aufgezeichnet
!!!SCT: Q0134D
!!!YEM: Copyright 1995, estate of Helmut Schaffrath.
**kern
*ICvox
*Ivox
*M4/4
*k[]
*C:
{8g
=1
4cc
8b
8a
4g
8g
8g
=2
4a
8g
8f
4e
8r}
{8e
=3
4g
8a
8f
8.d
16e
8f
8d
=4
8.e
16f
8g
8e
4c
8r}
{8g
=5
8g
8cc
8cc
8cc
8.cc
16dd
8ee
8cc
=6
8g
8dd
8dd
8dd
8.dd
16ee
8ff}
{8gg
=7
4ee
4dd
4cc
8r}
==
!!!AGN: Ballade, Jagd, Flucht, Verfuehrung
!! Dritte Zeile = Refrain auf sinnfreie Silben.
!!!ONB: ESAC (Essen Associative Code) Database: BALLADE
!!!AMT: simple quadruple
!!!AIN: vox
!!!EED: Helmut Schaffrath
!!!EEV: 1.0
*-
